X:1
T:Title
L:1/8
M:3/4
K:Eb
V:1 treble nm="Grand Piano"
V:1
 z2 z2[Q:1/4=100] C>E | G2 G2 A>F | G2 E2 G>F | E2 C2 E>C | D4 D>E | F2 G2 A>F | G2 G2 Gc | %7
 =Bc d2 B2 |[M:4/4] c6 G2 | c3 B A2 F2 | B3 A G2 G2 | A3 G F2 E2 | D6 G2 | c3 =B c2 G2 | %14
 A3 F G2 GA | G3 F E2 D2 | C6 z2 |] %17

